X:66
%
T:Christie Blacktoast
C:copyright (c) 2003 R.S. Doiel, all rights reserved
N:Title thought up by Steven Yagsemal Doiel, March 8th, 2003 at
N:his grandfather's birthday celebration on Santa Clarita Rd.
L:1/8
M:C
Q:1/4=80
K:G treble
|: "G" BAGB "D" AGED | "G" BAGB "D" AGED | "G" BAGe "A" dBcd | "G" dBAG "D" ABAG :|
|: "Bm" gedB "D" deg2 | "Bm" dedB "E" aged | "Bm" gedB "D" deg2 |1 "Bm" gedB "G" dBAG :|2 "Bm" gedB "G" BGG2 |]

